X:932
T:Shepton Hornpipe
C:Traditional English
S:Colin Hume's website,  colinhume.com  - chords can also be printed below the stave.
Q:1/2=112
M:2/2
L:1/8
R:Reel
K:G
|: "G"GABc d2dB | "C"c2e2 "D7"d2B2 | "G"GABc "Em"d2dB | "Am"c2e2 "D7"A4 |\
"G"GABc d2dB | "C"c2e2 "D7"d2B2 | "G"GABc "D7"dedc | "G"B2G2 G4 :|
|: "G"g2g2 gagf | "C"e2c2 cdcB | "A7"A2a2 abag | "D"f2d2 d2ef |\
"G"gagf "C"e2ag | "D7"fgfe d2ef | "G"g2B2 "D7"cedc | "G"B2G2 G4 :|

